X: 130
T: the Widdow Lady
T: Longways for ...
%R: jig
B: Daniel Wright "Wright's Compleat Collection of Celebrated Country Dances" 1740 p.65
S: http://library.efdss.org/cgi-bin/dancebooks.cgi
Z: 2014 John Chambers <jc:trillian.mit.edu>
N: Repeats modified to match the "Each strain twice" instruction.
M: 6/8
L: 1/8
K: G
% - - - - - - - - - - - - - - - - - - - - - - - - -
g |\
BGB G/A/BG | AFc A2F | BAB G/A/BG | BAB g>ag |\
fed edB | gdB Gef | ga/g/f/e/ dgG | B3 d2 :|
|: e/f/ |\
gab b2g | geb a2g | gab a2g | fed Bdg |\
fed edB | gdB Bag | gab dgG | B3 d2 :|
% - - - - - - - - - - - - - - - - - - - - - - - - -
%%center Each strain twice.
%%begintext align
%% The 1st and 2d Cu. back to back and turn
%% partners .| the 1st Cu. go the hey with the 3d
%% Cu. :| the 1st Cu. sett, 1st Man cast of, the 1st
%% Wo. at the same time cast up to the top, then
%% take each hands with the 2d and 3d Cu. and
%% go half round .| the 1st Cu. meet in the Middle
%% and turn half round, take hands with the
%% contrary Cu. and go half round, which brings
%% the 1st Cu. into the 2d Cu. places. :|
%%endtext
% - - - - - - - - - - - - - - - - - - - - - - - - -
%%sep 2 4 300
